!!!!SEGMENT: pl-kk--kk-i-111--009-003_anonim--deo-gratias-sabato-3tium.krn
!!!cenid: 18xx:2578
!!!COM: Anonim
!!!COM-rismid: pe30004985
!!!CDT:
!!!CNT:
!!!OTL: Deo gratias – Sabato 3tium
!!!PDT: 1824
!!!AGN: Sacred
!!!SMS-siglum: PL-Kk
!!!SMS-shelfmark: Kk.I.111
!!!SMS-shelfwork: 009-003 G
!!!SMS-variant:
!!!SMS-altvar:
!!!NIFC-rismid: 1001157693
!!!URL-scan: http://repozytorium.nifc.pl/skany/pl-kk-nut--i-111
!!!ONB-nifc: UWAGA: A, T1, T2. Podział na poszególne Deo gratias. A: skan 0003 (m.in)
**kern	**text	**kern	**text	**kern	**text
*part3	*part3	*part2	*part2	*part1	*part1
*staff3	*staff3	*staff2	*staff2	*staff1	*staff1
*I"Tenore Vagante.	*	*I"Tenore Chorale.	*	*I"Alto.	*
*I'T 2	*	*I'T 1	*	*I'A	*
*clefC4	*	*clefC4	*	*clefC3	*
*k[]	*	*k[]	*	*k[]	*
*M2/1	*	*M2/1	*	*M2/1	*
*met(c|)	*	*met(c|)	*	*met(c|)	*
*	*	*all\right	*	*all\right	*
*2\right	*	*2\right	*	*2\right	*
=1-	=1-	=1-	=1-	=1-	=1-
!	!	!LO:TX:t=P:problem:kreska pseudotaktowa	!	!	!
!	!	!	!	!LO:TX:t=P:problem:kreska pseudotaktowa	!
2d\	De-	0A	De-	1f	De-
1A	-o	.	.	.	.
!	!	!	!	!LO:TX:t=P:problem:kreska pseudotaktowa	!
.	.	.	.	1f	.
!LO:TX:t=P:problem:kreska pseudotaktowa	!	!	!	!	!
[2d\	.	.	.	.	.
=2	=2-	=2	=2-	=2	=2-
2d\]	.	2A\	.	2f\	-o
!	!	!LO:TX:t=P:problem:kreska pseudotaktowa	!	!	!
1e	.	2G\	-o	4e\	.
!	!	!	!	!LO:TX:t=P:problem:kreska pseudotaktowa	!
.	.	.	.	4d\	.
.	.	2c\	gra-	2c\	gra-
!LO:TX:t=P:problem:kreska pseudotaktowa	!	!LO:TX:t=P:problem:kreska pseudotaktowa	!	!LO:TX:t=P:problem:kreska pseudotaktowa	!
2f\	.	2A\	.	2a\	.
=3	=3-	=3	=3-	=3	=3-
!	!	!LO:TX:t=P:problem:kreska pseudotaktowa	!	!	!
2f\	gra-	1B-X	.	2d\	.
!	!	!	!	!LO:TX:t=P:problem:kreska pseudotaktowa	!
1e	.	.	.	2g\	.
!	!	!LO:TX:t=P:problem:kreska pseudotaktowa	!	!	!
.	.	1A	.	2c\	.
!LO:TX:t=P:problem:kreska pseudotaktowa	!	!	!	!LO:TX:t=P:problem:kreska pseudotaktowa	!
2d\	.	.	.	2f\	.
=4	=4-	=4	=4-	=4	=4-
!	!	!LO:TX:t=P:problem:kreska pseudotaktowa	!	!	!
2d\	.	1Gn	.	2Bn/	.
!LO:TX:t=P:problem:kreska pseudotaktowa	!	!	!	!LO:TX:t=P:problem:kreska pseudotaktowa	!
2c#X\	-ti-	.	.	2e\	-ti-
2d\	-as	2A\	.	2f\	-as
!	!	!LO:TX:t=P:problem:kreska pseudotaktowa	!	!	!
1A\	De-	2d\	.	1f\	De-
=5-	=5-	=5	=5-	=5-	=5-
.	.	2.c\	.	.	.
!LO:TX:t=P:problem:kreska pseudotaktowa	!	!	!	!LO:TX:t=P:problem:kreska pseudotaktowa	!
2c\	-o	.	.	2a\	.
!	!	!LO:TX:t=P:problem:kreska pseudotaktowa	!	!	!
.	.	4B\	-ti-	.	.
2c\	.	2A\	-as	2f\	-o
!LO:TX:t=P:problem:kreska pseudotaktowa	!	!LO:TX:t=P:problem:kreska pseudotaktowa	!	!LO:TX:t=P:problem:kreska pseudotaktowa	!
2Bn\	.	2d\	De-	2d\	.
=6	=6-	=6	=6-	=6	=6-
2c\	.	2G/	-o	2e\	gra-
!LO:TX:t=P:problem:kreska pseudotaktowa	!	!LO:TX:t=P:problem:kreska pseudotaktowa	!	!	!
2e\	.	2c\	.	1g	.
!LO:TX:t=P:problem:kreska pseudotaktowa	!	!	!	!	!
1d	.	2.A\	gra-	.	.
!	!	!	!	!LO:TX:t=P:problem:kreska pseudotaktowa	!
.	.	.	.	2fn\	.
!	!	!LO:TX:t=P:problem:kreska pseudotaktowa	!	!	!
.	.	4B\	.	.	.
=7	=7-	=7	=7-	=7	=7-
2e\	.	2c\	.	2g\	.
!	!	!	!	!LO:TX:t=P:problem:kreska pseudotaktowa	!
1e	gra-	1c	.	2e\	.
.	.	.	.	1.f	.
!LO:TX:t=P:problem:kreska pseudotaktowa	!	!LO:TX:t=P:problem:kreska pseudotaktowa	!	!	!
2d\	.	2Bn\	-ti-	.	.
=8	=8-	=8	=8-	=8-	=8-
2c\	.	2c\	-as	.	.
!	!	!LO:TX:t=P:problem:kreska pseudotaktowa	!	!LO:TX:t=P:problem:kreska pseudotaktowa	!
1d	.	2A\	De-	2a\	.
!	!	!	!	!LO:TX:t=P:problem:kreska pseudotaktowa	!
.	.	2Bn\	-o	1g	.
!LO:TX:t=P:problem:kreska pseudotaktowa	!	!LO:TX:t=P:problem:kreska pseudotaktowa	!	!	!
2c\	.	2G/	.	.	.
=9	=9-	=9	=9-	=9	=9-
2A\	.	2c\	gra-	2.f\	.
!LO:TX:t=P:problem:kreska pseudotaktowa	!	!	!	!	!
2A\	.	1d	.	.	.
!	!	!	!	!LO:TX:t=P:problem:kreska pseudotaktowa	!
.	.	.	.	4e\	-ti-
!LO:TX:t=P:problem:kreska pseudotaktowa	!	!	!	!	!
1B-X	.	.	.	2d\	-as
!	!	!LO:TX:t=P:problem:kreska pseudotaktowa	!	!LO:TX:t=P:problem:kreska pseudotaktowa	!
.	.	2B-X\	.	2e\	De-
=10	=10-	=10	=10-	=10	=10-
!	!	!LO:TX:t=P:problem:kreska pseudotaktowa	!	!LO:TX:t=P:problem:kreska pseudotaktowa	!
2c\	.	1A	.	1f	-o
1d	.	.	.	.	.
.	.	2.G/	.	2.g\	gra-
!LO:TX:t=P:problem:kreska pseudotaktowa	!	!	!	!	!
2c#X\	-ti-	.	.	.	.
!	!	!LO:TX:t=P:problem:kreska pseudotaktowa	!	!LO:TX:t=P:problem:kreska pseudotaktowa	!
.	.	4G/	-ti-	4g\	-ti-
=11	=11-	=11	=11-	=11	=11-
0d;	-as.	0A;	-as.	0f#X;<	-as.
==	=-	==	=-	==	=-
*-	*-	*-	*-	*-	*-
!!!system-decoration: [(s1,s2,s3)]
!!!RDF**kern: > = above
!!!RDF**kern: < = below
!!!ENC: Kamil Watkowski
!!!END: 2021-08-04
